rospo-icon-theme-classic-common/24x24/apps/sirikali.svg

<svg height="24" width="24" xmlns="http://www.w3.org/2000/svg"><rect fill="#1493ca" height="20" rx="1" transform="matrix(0 -1 -1 0 0 0)" width="20" x="-22" y="-22"/><path d="m3 2c-.554 0-1 .446-1 1v .5c0-.554.446-1 1-1h18c .554 0 1 .446 1 1v-.5c0-.554-.446-1-1-1z" fill="#fff" opacity=".2"/><path d="m2 21v .5c0 .554.446 1 1 1h18c .554 0 1-.446 1-1v-.5c0 .554-.446 1-1 1h-18c-.554 0-1-.446-1-1z" opacity=".2"/><path d="m12 6.5a4 4 0 0 0 -4 4v1h-.2363281c-.4227 0-.7636719.311219-.7636719.699219v5.601562c0 .388.3409719.699219.7636719.699219h8.4726561c.423 0 .763672-.311219.763672-.699219v-5.601562c0-.388-.340672-.699219-.763672-.699219h-.236328v-1a4 4 0 0 0 -4-4zm0 2a2 2 0 0 1 2 2v1h-4v-1a2 2 0 0 1 2-2zm0 4a1 1 0 0 1 1 1 1 1 0 0 1 -.5.865234v2.134766h-1v-2.136719a1 1 0 0 1 -.5-.863281 1 1 0 0 1 1-1z" opacity=".2"/><path d="m12 6a4 4 0 0 0 -4 4v1h-.2363281c-.4227 0-.7636719.311219-.7636719.699219v5.601562c0 .388.3409719.699219.7636719.699219h8.4726561c.423 0 .763672-.311219.763672-.699219v-5.601562c0-.388-.340672-.699219-.763672-.699219h-.236328v-1a4 4 0 0 0 -4-4zm0 2a2 2 0 0 1 2 2v1h-4v-1a2 2 0 0 1 2-2zm0 4a1 1 0 0 1 1 1 1 1 0 0 1 -.5.865234v2.134766h-1v-2.136719a1 1 0 0 1 -.5-.863281 1 1 0 0 1 1-1z" fill="#fff"/></svg>

<svg xmlns="http://www.w3.org/2000/svg" width="24" height="24" version="1">
 <rect style="fill:#1493ca" width="20" height="20" x="-22" y="-22" rx="1" ry="1" transform="matrix(0,-1,-1,0,0,0)"/>
 <path style="opacity:0.2;fill:#ffffff" d="M 3,2 C 2.446,2 2,2.446 2,3 l 0,0.5 c 0,-0.554 0.446,-1 1,-1 l 18,0 c 0.554,0 1,0.446 1,1 L 22,3 C 22,2.446 21.554,2 21,2 L 3,2 Z"/>
 <path style="opacity:0.2" d="m 2,21 0,0.5 c 0,0.554 0.446,1 1,1 l 18,0 c 0.554,0 1,-0.446 1,-1 L 22,21 c 0,0.554 -0.446,1 -1,1 L 3,22 C 2.446,22 2,21.554 2,21 Z"/>
 <path d="m 12,6.5 a 4,4 0 0 0 -4,4 l 0,1 -0.2363281,0 C 7.3409719,11.5 7,11.811219 7,12.199219 l 0,5.601562 C 7,18.188781 7.3409719,18.5 7.7636719,18.5 l 8.4726561,0 C 16.659328,18.5 17,18.188781 17,17.800781 l 0,-5.601562 C 17,11.811219 16.659328,11.5 16.236328,11.5 L 16,11.5 l 0,-1 a 4,4 0 0 0 -4,-4 z m 0,2 a 2,2 0 0 1 2,2 l 0,1 -4,0 0,-1 a 2,2 0 0 1 2,-2 z m 0,4 a 1,1 0 0 1 1,1 1,1 0 0 1 -0.5,0.865234 l 0,2.134766 -1,0 0,-2.136719 A 1,1 0 0 1 11,13.5 a 1,1 0 0 1 1,-1 z" style="opacity:0.2"/>
 <path style="fill:#ffffff" d="M 12 6 A 4 4 0 0 0 8 10 L 8 11 L 7.7636719 11 C 7.3409719 11 7 11.311219 7 11.699219 L 7 17.300781 C 7 17.688781 7.3409719 18 7.7636719 18 L 16.236328 18 C 16.659328 18 17 17.688781 17 17.300781 L 17 11.699219 C 17 11.311219 16.659328 11 16.236328 11 L 16 11 L 16 10 A 4 4 0 0 0 12 6 z M 12 8 A 2 2 0 0 1 14 10 L 14 11 L 10 11 L 10 10 A 2 2 0 0 1 12 8 z M 12 12 A 1 1 0 0 1 13 13 A 1 1 0 0 1 12.5 13.865234 L 12.5 16 L 11.5 16 L 11.5 13.863281 A 1 1 0 0 1 11 13 A 1 1 0 0 1 12 12 z"/>
</svg>
